**harm	**harte	**timestamp	**phrase	**leadinstrument	**kern
*M4/4	*M4/4	*	*	*	*
*A:	*A:	*	*	*	*A:
1r;	N	0	.	r	1r;
=1	=1	=1	=1	=1	=1
*>A_intro	*>A_intro	*>A_intro	*>A_intro	*>A_intro	*>A_intro
2I	A:maj	1.576	newline	r	2A 2cc# 2ee
2Id	A:maj/7	2.92	.	r	2a 2cc# 2ee
=2	=2	=2	=2	=2	=2
2Id	A:maj/b7	4.264	.	r	2a 2cc# 2ee
2Ig	A:maj/6	5.608	.	r	2A 2cc# 2ee
=3	=3	=3	=3	=3	=3
2IV7	D:maj7	6.953	.	r	2D 2f# 2a 2cc#
2ive	D:min6/2	8.297	.	r	2D 2f 2a
=4	=4	=4	=4	=4	=4
1I7	A:maj7	9.641	.	r	1A 1cc# 1ee 1gg#
=5	=5	=5	=5	=5	=5
*>B_verse	*>B_verse	*>B_verse	*>B_verse	*>B_verse	*>B_verse
1I7	A:maj7	12.329	newline	voice	1A 1cc# 1ee 1gg#
=6	=6	=6	=6	=6	=6
1I7	A:maj7	15.028	.	voice	1A 1cc# 1ee 1gg#
=7	=7	=7	=7	=7	=7
1ii7	B:min7	17.728	.	voice	1B 1dd 1ff# 1aa
=8	=8	=8	=8	=8	=8
1ii7	B:min7	20.427	.	voice	1B 1dd 1ff# 1aa
=9	=9	=9	=9	=9	=9
1V	E:sus4	23.127	newline	voice	1E 1g# 1b
=10	=10	=10	=10	=10	=10
1V7	E:7	25.774	.	voice	1E 1g# 1b 1dd
=11	=11	=11	=11	=11	=11
1I7	A:maj7	28.421	.	voice	1A 1cc# 1ee 1gg#
=12	=12	=12	=12	=12	=12
1Im7	A:7	31.068	.	voice	1A 1cc# 1ee 1gg#
=13	=13	=13	=13	=13	=13
1IV7	D:maj7	33.715	newline	voice	1D 1f# 1a 1cc#
=14	=14	=14	=14	=14	=14
2V	E:sus4(b7)	36.357	.	voice	2E 2g# 2b
2V7	E:7	37.677	.	voice	2E 2g# 2b 2dd
=15	=15	=15	=15	=15	=15
1I7	A:maj7	38.998	.	voice	1A 1cc# 1ee 1gg#
=16	=16	=16	=16	=16	=16
1I7	A:maj7	41.639	.	voice	1A 1cc# 1ee 1gg#
=17	=17	=17	=17	=17	=17
2vi	F#:min	44.28	newline	voice	2F# 2a 2cc#
2vid	F#:min/7	45.598	.	voice	2f# 2a 2cc#
=18	=18	=18	=18	=18	=18
2vid	F#:min/b7	46.916	.	voice	2f# 2a 2cc#
2II7	B:9	48.234	.	voice	2B 2dd# 2ff# 2aa
=19	=19	=19	=19	=19	=19
1V	E:sus4(b7,9)	49.551	.	voice	1E 1g# 1b
=20	=20	=20	=20	=20	=20
1V7	E:7	52.187	.	voice	1E 1g# 1b 1dd
=21	=21	=21	=21	=21	=21
*>C_chorus	*>C_chorus	*>C_chorus	*>C_chorus	*>C_chorus	*>C_chorus
1I7	A:maj7	54.822	newline	voice	1A 1cc# 1ee 1gg#
=22	=22	=22	=22	=22	=22
1Im7	A:7	57.422	.	voice	1A 1cc# 1ee 1gg#
=23	=23	=23	=23	=23	=23
1IV7	D:maj7	60.021	.	voice	1D 1f# 1a 1cc#
=24	=24	=24	=24	=24	=24
1IV7	D:maj7	62.621	.	voice	1D 1f# 1a 1cc#
=25	=25	=25	=25	=25	=25
1ii7	B:min7	65.22	newline	voice	1B 1dd 1ff# 1aa
=26	=26	=26	=26	=26	=26
1V7	E:7	67.8	.	voice	1E 1g# 1b 1dd
=27	=27	=27	=27	=27	=27
1I7	A:maj7	70.38	.	voice	1A 1cc# 1ee 1gg#
=28	=28	=28	=28	=28	=28
1Im7	A:7	72.96	.	voice	1A 1cc# 1ee 1gg#
=29	=29	=29	=29	=29	=29
1IV7	D:maj7	75.539	newline	voice	1D 1f# 1a 1cc#
=30	=30	=30	=30	=30	=30
1V7	E:7	78.119	.	voice	1E 1g# 1b 1dd
=31	=31	=31	=31	=31	=31
1I7	A:maj7	80.698	.	voice	1A 1cc# 1ee 1gg#
=32	=32	=32	=32	=32	=32
1IV7	D:maj7	83.278	.	voice	1D 1f# 1a 1cc#
=33	=33	=33	=33	=33	=33
1ii7	B:min7	85.857	newline	voice	1B 1dd 1ff# 1aa
=34	=34	=34	=34	=34	=34
1V7	E:7	88.421	.	voice	1E 1g# 1b 1dd
=35	=35	=35	=35	=35	=35
1I7	A:maj7	90.985	.	voice	1A 1cc# 1ee 1gg#
=36	=36	=36	=36	=36	=36
1IV7	D:maj7	93.55	.	voice	1D 1f# 1a 1cc#
=37	=37	=37	=37	=37	=37
1ii7	B:min7	96.114	newline	voice	1B 1dd 1ff# 1aa
=38	=38	=38	=38	=38	=38
1V7	E:7	98.659	.	voice	1E 1g# 1b 1dd
=39	=39	=39	=39	=39	=39
*>D_trans	*>D_trans	*>D_trans	*>D_trans	*>D_trans	*>D_trans
1I7	A:maj7	101.205	newline	strings	1A 1cc# 1ee 1gg#
=40	=40	=40	=40	=40	=40
1iid	B:min/b7	103.74	.	strings	1b 1dd 1ff#
=41	=41	=41	=41	=41	=41
1I7	A:maj7	106.274	.	strings	1A 1cc# 1ee 1gg#
=42	=42	=42	=42	=42	=42
2vi	F#:sus4(b7)	108.809	.	strings	2F# 2a 2cc#
2VI7	F#:7	110.077	.	strings	2F# 2a# 2cc# 2ee
=43	=43	=43	=43	=43	=43
*>B_verse	*>B_verse	*>B_verse	*>B_verse	*>B_verse	*>B_verse
1IIM7	B:maj7	111.344	newline	voice	1B 1dd# 1ff# 1aa
=44	=44	=44	=44	=44	=44
1IIM7	B:maj7	113.919	.	voice	1B 1dd# 1ff# 1aa
=45	=45	=45	=45	=45	=45
1iii7	C#:min7	116.494	.	voice	1C# 1e 1g# 1b
=46	=46	=46	=46	=46	=46
1iii7	C#:min7	119.068	.	voice	1C# 1e 1g# 1b
=47	=47	=47	=47	=47	=47
1vi	F#:sus4	121.643	newline	voice	1F# 1a 1cc#
=48	=48	=48	=48	=48	=48
1VI7	F#:7	124.163	.	voice	1F# 1a# 1cc# 1ee
=49	=49	=49	=49	=49	=49
1IIM7	B:maj7	126.682	.	voice	1B 1dd# 1ff# 1aa
=50	=50	=50	=50	=50	=50
1II7	B:7	129.201	.	voice	1B 1dd# 1ff# 1aa
=51	=51	=51	=51	=51	=51
1VM7	E:maj7	131.721	newline	voice	1E 1g# 1b 1dd
=52	=52	=52	=52	=52	=52
2vi	F#:sus4(b7)	134.245	.	voice	2F# 2a 2cc#
2VI7	F#:7	135.507	.	voice	2F# 2a# 2cc# 2ee
=53	=53	=53	=53	=53	=53
1IIM7	B:maj7	136.769	.	voice	1B 1dd# 1ff# 1aa
=54	=54	=54	=54	=54	=54
1IIM7	B:maj7	139.294	.	voice	1B 1dd# 1ff# 1aa
=55	=55	=55	=55	=55	=55
2vii	G#:min	141.818	newline	voice	2G# 2b 2dd#
2viid	G#:min/b7	143.09	.	voice	2g# 2b 2dd#
=56	=56	=56	=56	=56	=56
2viid	G#:min/bb7	144.362	.	voice	2g# 2b 2dd#
2III7	C#:9	145.635	.	voice	2C# 2e# 2g# 2b
=57	=57	=57	=57	=57	=57
1vi	F#:sus4(b7,9)	146.907	.	voice	1F# 1a 1cc#
=58	=58	=58	=58	=58	=58
1VI7	F#:7	149.451	.	voice	1F# 1a# 1cc# 1ee
=59	=59	=59	=59	=59	=59
*>C_chorus	*>C_chorus	*>C_chorus	*>C_chorus	*>C_chorus	*>C_chorus
1IIM7	B:maj7	151.995	newline	voice	1B 1dd# 1ff# 1aa
=60	=60	=60	=60	=60	=60
1II7	B:7	154.527	.	voice	1B 1dd# 1ff# 1aa
=61	=61	=61	=61	=61	=61
1VM7	E:maj7	157.058	.	voice	1E 1g# 1b 1dd
=62	=62	=62	=62	=62	=62
1VM7	E:maj7	159.59	.	voice	1E 1g# 1b 1dd
=63	=63	=63	=63	=63	=63
1iii7	C#:min7	162.122	newline	voice	1C# 1e 1g# 1b
=64	=64	=64	=64	=64	=64
1VI7	F#:7	164.669	.	voice	1F# 1a# 1cc# 1ee
=65	=65	=65	=65	=65	=65
1IIM7	B:maj7	167.216	.	voice	1B 1dd# 1ff# 1aa
=66	=66	=66	=66	=66	=66
1II7	B:7	169.762	.	voice	1B 1dd# 1ff# 1aa
=67	=67	=67	=67	=67	=67
1VM7	E:maj7	172.309	newline	voice	1E 1g# 1b 1dd
=68	=68	=68	=68	=68	=68
1VI7	F#:7	174.853	.	voice	1F# 1a# 1cc# 1ee
=69	=69	=69	=69	=69	=69
1IIM7	B:maj7	177.396	.	voice	1B 1dd# 1ff# 1aa
=70	=70	=70	=70	=70	=70
1VM7	E:maj7	179.939	.	voice	1E 1g# 1b 1dd
=71	=71	=71	=71	=71	=71
1iii7	C#:min7	182.482	newline	voice	1C# 1e 1g# 1b
=72	=72	=72	=72	=72	=72
1VI7	F#:7	184.991	.	voice	1F# 1a# 1cc# 1ee
=73	=73	=73	=73	=73	=73
1IIM7	B:maj7	187.499	.	voice	1B 1dd# 1ff# 1aa
=74	=74	=74	=74	=74	=74
1VM7	E:maj7	190.008	.	voice	1E 1g# 1b 1dd
=75	=75	=75	=75	=75	=75
1iii7	C#:min7	192.516	newline	voice	1C# 1e 1g# 1b
=76	=76	=76	=76	=76	=76
1VI7	F#:7	195.03	.	voice	1F# 1a# 1cc# 1ee
=77	=77	=77	=77	=77	=77
1IIM7	B:maj7	197.543	.	voice	1B 1dd# 1ff# 1aa
=78	=78	=78	=78	=78	=78
1VM7	E:maj7	200.056	.	voice	1E 1g# 1b 1dd
=79	=79	=79	=79	=79	=79
1iii7	C#:min7	202.57	newline	voice	1C# 1e 1g# 1b
1r;	N	204.207	.	r	1r;
=80	=80	=80	=80	=80	=80
1VI7	F#:7	205.844	.	r	1F# 1a# 1cc# 1ee
1r;	N	207.482	.	r	1r;
=81	=81	=81	=81	=81	=81
*>A_coda	*>A_coda	*>A_coda	*>A_coda	*>A_coda	*>A_coda
2II	B:maj	209.119	newline	r	2B 2dd# 2ff#
2IId	B:maj/7	210.442	.	r	2b 2dd# 2ff#
=82	=82	=82	=82	=82	=82
2IId	B:maj/b7	211.766	.	r	2b 2dd# 2ff#
2IIg	B:maj/6	213.09	.	r	2B 2dd# 2ff#
=83	=83	=83	=83	=83	=83
2VM7	E:maj7	214.413	.	r	2E 2g# 2b 2dd
2ve	E:min6/2	215.737	.	r	2E 2g 2b
=84	=84	=84	=84	=84	=84
1IIM7	B:maj7	217.06	.	r	1B 1dd# 1ff# 1aa
1r;	N	219.707	.	r	1r;
1r;	N	222.354	.	r	1r;
1r;	N	227.37	.	r	1r;
*-	*-	*-	*-	*-	*-
!!!OTL: Best Thing That Ever Happened To Me
!!!COC: Gladys Knight & The Pips
!!!BillboardChartDate: 1974/06/08
!!!BillboardPeak: 3
!!!BillboardWeeksOnChart: 17
!!!SampleTargetRank: 41
!!!SampleActualRank: 42
!!!SampleID#: 0380
!!!RDF**harmony: **recip + pitch class of root + harmonic quality
!!!RDF**harte: Chris Harte's syntax, used by MIREX
!!!RDF**phrase: newline = linebreak in original McGill transcription
!!!RDF**timestamp: McGill audio timestamp in seconds
!!!RDF**leadinstrument: original McGill primary instrumentation annotation
!!!RDT: 2017/01/12/
!!!ENC: Nathaniel Condit-Schultz
!!!EST: Awating manual error checking and editing.
